dist/img/icons/house.svg

<svg width="23" height="23" viewBox="0 0 23 23" fill="none" xmlns="http://www.w3.org/2000/svg">
<path d="M22.1576 8.69112L14.8887 1.4212C13.989 0.524192 12.7704 0.0204773 11.5 0.0204773C10.2296 0.0204773 9.01099 0.524192 8.11135 1.4212L0.842387 8.69112C0.574461 8.95733 0.362041 9.27407 0.217441 9.62299C0.0728403 9.9719 -0.00106413 10.3461 1.15762e-05 10.7237V20.1317C1.15762e-05 20.8942 0.302913 21.6255 0.84208 22.1646C1.38125 22.7038 2.11251 23.0067 2.87501 23.0067H20.125C20.8875 23.0067 21.6188 22.7038 22.1579 22.1646C22.6971 21.6255 23 20.8942 23 20.1317V10.7237C23.0011 10.3461 22.9272 9.9719 22.7826 9.62299C22.638 9.27407 22.4256 8.95733 22.1576 8.69112ZM14.375 21.09H8.62501V17.32C8.62501 16.5575 8.92791 15.8262 9.46708 15.287C10.0062 14.7479 10.7375 14.445 11.5 14.445C12.2625 14.445 12.9938 14.7479 13.5329 15.287C14.0721 15.8262 14.375 16.5575 14.375 17.32V21.09ZM21.0833 20.1317C21.0833 20.3859 20.9824 20.6296 20.8027 20.8093C20.6229 20.9891 20.3792 21.09 20.125 21.09H16.2917V17.32C16.2917 16.0491 15.7868 14.8303 14.8882 13.9317C13.9896 13.0331 12.7708 12.5283 11.5 12.5283C10.2292 12.5283 9.0104 13.0331 8.11179 13.9317C7.21318 14.8303 6.70834 16.0491 6.70834 17.32V21.09H2.87501C2.62085 21.09 2.37709 20.9891 2.19737 20.8093C2.01765 20.6296 1.91668 20.3859 1.91668 20.1317V10.7237C1.91757 10.4698 2.01844 10.2264 2.19747 10.0462L9.46643 2.77916C10.0066 2.24147 10.7378 1.93961 11.5 1.93961C12.2622 1.93961 12.9934 2.24147 13.5336 2.77916L20.8026 10.0491C20.9809 10.2285 21.0817 10.4708 21.0833 10.7237V20.1317Z" fill="white"/>

</svg>

<svg width="23" height="23" fill="none" xmlns="http://www.w3.org/2000/svg"><path d="m22.158 8.691-7.27-7.27a4.8 4.8 0 0 0-6.777 0L.842 8.691A2.854 2.854 0 0 0 0 10.724v9.408a2.875 2.875 0 0 0 2.875 2.875h17.25A2.875 2.875 0 0 0 23 20.132v-9.408a2.854 2.854 0 0 0-.842-2.033ZM14.375 21.09h-5.75v-3.77a2.875 2.875 0 0 1 5.75 0v3.77Zm6.708-.958a.958.958 0 0 1-.958.958h-3.833v-3.77a4.792 4.792 0 0 0-9.584 0v3.77H2.875a.958.958 0 0 1-.958-.958v-9.408c0-.254.101-.498.28-.678l7.27-7.267a2.883 2.883 0 0 1 4.067 0l7.269 7.27c.178.18.279.422.28.675v9.408Z" fill="#fff"/></svg>
